X:1
T:’Tis Not Far to Jesus, 11.11.12.11
T:’Tis Not Far to Jesus, 11.11.12.11
T:William Howard Doane, 1880
T:Public Domain Courtesy of the Cyber Hymnal™
C:William Howard Doane, 1880
Z:Public Domain
Z:Courtesy of the Cyber Hymnal™
%%score ( 1 2 ) ( 3 4 )
L:1/8
Q:1/4=90
M:2/4
K:F
V:1 treble 
V:2 treble 
V:3 bass 
V:4 bass 
V:1
 F[EG] [FA][GB] | [Ac]2 [FA]2 | [GB][EG] [FA]F | [EG]4 | F[EG] [FA][GB] | [Ac]2 [FA]2 | %6
 [EG][Ec] [D=B][Fd] | [Ec]4 | [Fc][Fc] [FA]F | [EG]2 C2 | [Fc][Fc] [FA]F | [EG]2 C2 | %12
 F[EG] [FA][_EA] | [DB]2 !fermata![Fd]2 | [Fc][FA] [GB][EG] | F4 |] %16
V:2
 F x3 | x4 | x3 F | x4 | F x3 | x4 | x4 | x4 | x3 F | x2 C2 | x3 F | x2 C2 | F x3 | x4 | x4 | F4 |] %16
V:3
 [F,A,][C,C] [F,C][F,C] | [F,F]2 [F,C]2 | [C,C][C,C] [F,C][A,,C] | [C,C]4 | %4
 [F,A,][C,C] [F,C][F,C] | [F,F]2 [F,C]2 | [G,C][G,C] G,[G,=B,] | [C,C]4 | %8
 [F,A,][F,A,] [F,C][F,A,] | [C,C]2 [C,C]2 | A,[F,A,] [F,C][F,A,] | [C,C]2 [C,C]2 | %12
 [F,A,][C,C] [F,C][F,C] | [B,,B,]2 !fermata![B,,B,]2 | [C,A,][C,C] [C,C][C,B,] | [F,A,]4 |] %16
V:4
 x4 | x4 | x4 | x4 | x4 | x4 | x2 G, x | x4 | x4 | x4 | A, x3 | x4 | x4 | x4 | x4 | x4 |] %16

